src/assets/images/icons/loading-icon.svg

<svg width="34" height="35" viewBox="0 0 34 35" fill="none" xmlns="http://www.w3.org/2000/svg">
<path d="M17 0C17.4509 0 17.8833 0.184374 18.2021 0.512563C18.5209 0.840752 18.7 1.28587 18.7 1.75V7C18.7 7.46413 18.5209 7.90925 18.2021 8.23744C17.8833 8.56563 17.4509 8.75 17 8.75C16.5491 8.75 16.1167 8.56563 15.7979 8.23744C15.4791 7.90925 15.3 7.46413 15.3 7V1.75C15.3 1.28587 15.4791 0.840752 15.7979 0.512563C16.1167 0.184374 16.5491 0 17 0ZM17 26.25C17.4509 26.25 17.8833 26.4344 18.2021 26.7626C18.5209 27.0907 18.7 27.5359 18.7 28V33.25C18.7 33.7141 18.5209 34.1592 18.2021 34.4874C17.8833 34.8156 17.4509 35 17 35C16.5491 35 16.1167 34.8156 15.7979 34.4874C15.4791 34.1592 15.3 33.7141 15.3 33.25V28C15.3 27.5359 15.4791 27.0907 15.7979 26.7626C16.1167 26.4344 16.5491 26.25 17 26.25ZM34 17.5C34 17.9641 33.8209 18.4092 33.5021 18.7374C33.1833 19.0656 32.7509 19.25 32.3 19.25H27.2C26.7491 19.25 26.3167 19.0656 25.9979 18.7374C25.6791 18.4092 25.5 17.9641 25.5 17.5C25.5 17.0359 25.6791 16.5908 25.9979 16.2626C26.3167 15.9344 26.7491 15.75 27.2 15.75H32.3C32.7509 15.75 33.1833 15.9344 33.5021 16.2626C33.8209 16.5908 34 17.0359 34 17.5ZM8.5 17.5C8.5 17.9641 8.32089 18.4092 8.00208 18.7374C7.68327 19.0656 7.25087 19.25 6.8 19.25H1.7C1.24913 19.25 0.81673 19.0656 0.497918 18.7374C0.179107 18.4092 0 17.9641 0 17.5C0 17.0359 0.179107 16.5908 0.497918 16.2626C0.81673 15.9344 1.24913 15.75 1.7 15.75H6.8C7.25087 15.75 7.68327 15.9344 8.00208 16.2626C8.32089 16.5908 8.5 17.0359 8.5 17.5ZM29.0207 29.8742C28.7019 30.2023 28.2696 30.3866 27.8188 30.3866C27.368 30.3866 26.9357 30.2023 26.6169 29.8742L23.0112 26.1625C22.7015 25.8324 22.5302 25.3904 22.5341 24.9315C22.5379 24.4727 22.7167 24.0338 23.0319 23.7093C23.3471 23.3849 23.7735 23.2008 24.2192 23.1968C24.665 23.1928 25.0944 23.3692 25.415 23.688L29.0207 27.398C29.1788 27.5605 29.3041 27.7535 29.3897 27.966C29.4753 28.1784 29.5193 28.4061 29.5193 28.6361C29.5193 28.8661 29.4753 29.0938 29.3897 29.3063C29.3041 29.5187 29.1788 29.7117 29.0207 29.8742ZM10.9888 11.312C10.67 11.6401 10.2377 11.8244 9.7869 11.8244C9.33612 11.8244 8.9038 11.6401 8.585 11.312L4.981 7.602C4.66201 7.27386 4.48272 6.82872 4.48256 6.36449C4.4824 5.90027 4.66139 5.455 4.98015 5.12663C5.29891 4.79825 5.73134 4.61368 6.1823 4.61352C6.63326 4.61336 7.06581 4.79761 7.3848 5.12575L10.9888 8.8375C11.3075 9.16567 11.4865 9.61071 11.4865 10.0747C11.4865 10.5388 11.3075 10.9838 10.9888 11.312ZM4.981 29.8742C4.6623 29.5461 4.48326 29.101 4.48326 28.637C4.48326 28.173 4.6623 27.7279 4.981 27.3997L8.5867 23.688C8.74352 23.5209 8.93111 23.3875 9.13851 23.2958C9.34592 23.2041 9.56899 23.1558 9.79472 23.1538C10.0204 23.1518 10.2443 23.1961 10.4532 23.2841C10.6621 23.3721 10.852 23.502 11.0116 23.6663C11.1712 23.8306 11.2974 24.026 11.3829 24.2411C11.4684 24.4562 11.5114 24.6866 11.5094 24.919C11.5075 25.1513 11.4606 25.381 11.3715 25.5945C11.2824 25.808 11.1529 26.0011 10.9905 26.1625L7.3865 29.8742C7.22862 30.037 7.04113 30.166 6.83475 30.2541C6.62837 30.3422 6.40716 30.3875 6.18375 30.3875C5.96034 30.3875 5.73913 30.3422 5.53275 30.2541C5.32637 30.166 5.13888 30.037 4.981 29.8742ZM23.0112 11.312C22.6925 10.9838 22.5135 10.5388 22.5135 10.0747C22.5135 9.61071 22.6925 9.16567 23.0112 8.8375L26.6152 5.12575C26.934 4.79738 27.3664 4.61281 27.8173 4.61265C28.2683 4.61248 28.7009 4.79674 29.0198 5.12488C29.3388 5.45301 29.5181 5.89816 29.5183 6.36238C29.5185 6.8266 29.3395 7.27188 29.0207 7.60025L25.415 11.312C25.0962 11.6401 24.6639 11.8244 24.2131 11.8244C23.7623 11.8244 23.33 11.6401 23.0112 11.312Z" fill="black"/>
</svg>

<svg width="34" height="35" fill="none" xmlns="http://www.w3.org/2000/svg"><path d="M17 0c.45 0 .883.184 1.202.513.319.328.498.773.498 1.237V7c0 .464-.18.91-.498 1.237A1.676 1.676 0 0 1 17 8.75c-.45 0-.883-.184-1.202-.513A1.776 1.776 0 0 1 15.3 7V1.75c0-.464.18-.91.498-1.237A1.676 1.676 0 0 1 17 0Zm0 26.25c.45 0 .883.184 1.202.513.319.328.498.773.498 1.237v5.25c0 .464-.18.91-.498 1.237A1.676 1.676 0 0 1 17 35c-.45 0-.883-.184-1.202-.513a1.776 1.776 0 0 1-.498-1.237V28c0-.464.18-.91.498-1.237A1.676 1.676 0 0 1 17 26.25Zm17-8.75c0 .464-.18.91-.498 1.237a1.676 1.676 0 0 1-1.202.513h-5.1c-.45 0-.883-.184-1.202-.513A1.776 1.776 0 0 1 25.5 17.5c0-.464.18-.91.498-1.237a1.676 1.676 0 0 1 1.202-.513h5.1c.45 0 .883.184 1.202.513.319.328.498.773.498 1.237Zm-25.5 0c0 .464-.18.91-.498 1.237a1.676 1.676 0 0 1-1.202.513H1.7c-.45 0-.883-.184-1.202-.513A1.776 1.776 0 0 1 0 17.5c0-.464.18-.91.498-1.237A1.676 1.676 0 0 1 1.7 15.75h5.1c.45 0 .883.184 1.202.513.319.328.498.773.498 1.237Zm20.52 12.374a1.676 1.676 0 0 1-1.201.513c-.451 0-.883-.185-1.202-.513l-3.606-3.711a1.778 1.778 0 0 1-.477-1.232c.004-.458.183-.897.498-1.222a1.676 1.676 0 0 1 1.187-.512c.446-.004.875.172 1.196.491l3.606 3.71a1.793 1.793 0 0 1 0 2.476ZM10.99 11.312a1.676 1.676 0 0 1-1.202.512c-.45 0-.883-.184-1.202-.512l-3.604-3.71a1.777 1.777 0 0 1-.498-1.238c0-.464.178-.909.497-1.237a1.676 1.676 0 0 1 1.202-.513c.451 0 .884.184 1.203.512l3.604 3.712c.318.328.497.773.497 1.237 0 .464-.179.909-.497 1.237ZM4.98 29.874a1.776 1.776 0 0 1-.498-1.237c0-.464.18-.91.498-1.237l3.606-3.712a1.7 1.7 0 0 1 .552-.392 1.659 1.659 0 0 1 1.873.37 1.794 1.794 0 0 1-.021 2.496l-3.604 3.712a1.697 1.697 0 0 1-.552.38 1.657 1.657 0 0 1-1.854-.38Zm18.03-18.562a1.776 1.776 0 0 1-.497-1.237c0-.464.178-.91.497-1.237l3.604-3.712a1.676 1.676 0 0 1 1.202-.513c.451 0 .884.184 1.203.512.319.328.498.773.498 1.237 0 .465-.178.91-.497 1.238l-3.606 3.712a1.676 1.676 0 0 1-1.202.512c-.45 0-.883-.184-1.202-.512Z" fill="#000"/></svg>
